X: 53
T: Stomp Dance Song (h) [Second rendition]
C: Anon.
%%abc-version 2.0
%%abcx-abcm2ps-target-version 5.9.1 (29 Sep 2008)
%%abc-creator hum2abc beta
%%abcx-conversion-date 2020/08/10 20:56:09
%%abc-copyright Electronic Copyright 2000 David Huron
%%abc-edited-by David Huron
%%abcx-initial-encoding-date August 29, 2000
%%humdrum-veritas 3334336778
%%humdrum-veritas-data 616461415
%%linebreak <none>
%%barnumbers 0
L: 1/16
M: 2/4
Q: 1/4=72
K: C clef=bass
C2> D2 A,2 C2 | 
C2> A,2 A, G, A,2 | 
C2> D2 A,2 C2 | 
C2> A,2 A, G, A, z/ E/ | 
E2> C2 D2 D2 | 
C2> A,2 A, G, A, z/ E/ | 
D2> C2 A,2 C z | 
C2> A,2 A, G, A, z | 
D2> A,2 A,2 C2 | 
C2> A,2 A, G, A, z/ E/ | 
D2> C2 z | 
C2> A,2 A, G, A, z | 
C2> D2 A,2 C z | 
C2> A,2 A, G, A, z | 
C2> C2 C2 C z | 
C2> A,2 A, G, A, z | 
D2> D2 A,2 C2 | 
C2> A,2 A, G, A, z | 
A, A, D2 A,2 C z | 
C2> A,2 A, G, A, z | 
D D D2 A,2 C2 | 
C2> A,2 A, G, A, z/ A,/ | 
A,2 z2 A,2 z2 |]  


